X:1
T:Title
%%score { ( 1 3 ) | 2 }
L:1/8
Q:1/4=100
M:4/4
K:G
V:1 treble nm="Grand Piano"
V:3 treble 
V:2 treble 
V:1
 B>c BA G4 | d>e dc B4 | A>B A[Fd] [A,DF]2[K:bass] [G,^CE]2 | [F,D]8 | [G,DG]>[DA] [DG][DF] [CE]4 | %5
w: Robert~Lowry * * * *|||||
 [^CA]>[CB] [CA][EG] [A,DF]4 | [Dd]>[Dd] [Ec][EA] [B,DG]2 [CDA]2 | [B,DG]8 | [GB]6 .[CA]2 | %9
w: ||||
 [EG]6 z2 | [DF]6 z2 | [GB]2- [DG-B-]2 [DGB]2 Bc |[M:3/4] d>e d[Fc] [GB]2 |[M:1/4] [DB][DA] | %14
w: |||||
[M:4/4] [EG]>[EA] [G,EG][G,DF] [G,CE]4 |[M:9/8] [G,B,D] [B,DG]2- [B,DG] [DGB]2- [DGB] [CDA]2 | %16
w: ||
[M:4/4] [B,DG]8 |] %17
w: |
V:2
 [G,DG]>[G,EG] [G,DG][G,CD] [G,B,D]4 | [G,B,G]>[G,CG] [G,B,G][K:bass][F,A,D] [G,D]4 | %2
 [D,F,D]>[D,G,D] [D,F,D][D,A,] A,,2 A,,2 | D,4 C,4 | B,,>[B,,G,] [B,,G,][B,,G,] [C,G,]4 | %5
 [A,,A,]>[A,,A,] [A,,A,][A,,A,] D,2 C,2 | [B,,G,]>[B,,G,] [C,G,]C, D,2 D,2 | G,,8 | %8
 G,2 G,2 G,2 D,D, | E,2 E,2 E,2 ^C,C, | D,2 D,2 D,2 D,D, | G,2 G,2 G,2[K:treble] [G,D][G,A,D] | %12
[M:3/4] [G,B,G]>[G,CG] [G,B,G][K:bass][D,A,] [E,G,]2 |[M:1/4] [B,,G,][B,,G,] | %14
[M:4/4] [C,G,]>[C,G,] C,C, C,4 |[M:9/8] D, D,2- D, D,2- D, D,2 |[M:4/4] G,,8 |] %17
V:3
 x8 | x8 | x6[K:bass] x2 | x8 | x8 | x8 | x8 | x8 | D2 D2 D2 F-[DFB] | B,2 B,2 B,2 [A,EA][A,EG] | %10
 A,2 A,2 A,2 [DFA][DAc] | D2 z2 z4 |[M:3/4] x6 |[M:1/4] x2 |[M:4/4] x8 |[M:9/8] x9 |[M:4/4] x8 |] %17

